X: 17311
T: Hiawatha
R: hornpipe
M: 4/4
K: Cdorian
|:(3edc|BDFB dFAc|BDFB dFBd|eAc=e fAce|fAc=e fe_ec|
BDFB dFAc|BDFB dFBd|eAc=e fe_eA|B2b2B2:|
|:(3fga|bdfb bdfa|gBeg (3gef gf|eGce dFAc|BDFB (3ABc (3fga|
bdfb bdfa|gBeg (3gef gf|edcB AFEC|B,2B2B,2:|

